X: 8109
T: Contentment Is Wealth
R: jig
M: 6/8
K: Eminor
|:~g3 edB|BAB EFG|FAF DFA|dAF AFD|
~g3 edB|BAB EGA|BdB AGF|GED E3:|
|:~e3 Beg|bge gfe|ded Adf|afd fed|
~e3 Beg|bge gfe|BdB AGF|GED E3:|

